!!!!SEGMENT: Bau1002d-Missa_En_douleur_en_tristesse-Sanctus.krn
!!!id: Bau1002d
!!!OTL: Sanctus
!!!AGN: Mass; Sanctus
!!!voices: 3-5
!!!COM: Noel Bauldeweyn
!!!OTL: Missa En douleur en tristesse
**kern	**kern	**kern	**kern	**kern
*part5	*part4	*part3	*part2	*part1
*staff5	*staff4	*staff3	*staff2	*staff1
*I"Bassus	*I"Tenor II	*I"Tenor I	*I"Altus	*I"Superius
*I'B	*I'T. II	*I'T. I	*I'A	*I'S
*clefF4	*clefGv2	*clefGv2	*clefGv2	*clefG2
*k[b-]	*k[b-]	*k[b-]	*k[b-]	*k[b-]
*F:	*F:	*F:	*F:	*F:
*M2/1	*M2/1	*M2/1	*M2/1	*M2/1
*met(C|)	*met(C|)	*met(C|)	*met(C|)	*met(C|)
!!section: Sanctus
!!!OMD: Sanctus
=1	=1	=1	=1	=1
!	!	!LO:TX:a:t=Canon&colon; tenor I/bassus at the octave	!	!
0r	1G	0r	0r	0r
.	[1B-y	.	.	.
=2	=2	=2	=2	=2
0r	2B-]	0r	0r	0r
.	4A	.	.	.
.	4G	.	.	.
.	1A	.	.	.
=3	=3	=3	=3	=3
0r	4G	0r	1G	0r
.	4A	.	.	.
.	4B-y	.	.	.
.	4c	.	.	.
.	2d	.	[1B-y	.
.	2D	.	.	.
=4	=4	=4	=4	=4
0r	4E	0r	2B-]	0r
.	4D	.	.	.
.	1G	.	4A	.
.	.	.	4G	.
.	.	.	1A	.
.	2F#i	.	.	.
=5	=5	=5	=5	=5
0r	[0G	0r	4G	1g
.	.	.	4A	.
.	.	.	4B-y	.
.	.	.	4c	.
.	.	.	2d	[1b-y
.	.	.	2e	.
=6	=6	=6	=6	=6
0r	1G]	0r	2d	2b-]
.	.	.	1g	4a
.	.	.	.	4g
.	1D	.	.	1a
.	.	.	2f#i	.
=7	=7	=7	=7	=7
0r	2.G	0G	1g	4g
.	.	.	.	4a
.	.	.	.	4b-y
.	4A	.	.	4cc
.	4B-y	.	2r	2dd
.	4c	.	.	.
.	2d	.	[2G	[2d
=8	=8	=8	=8	=8
0r	0G	1.B-y	4G]	2d]
.	.	.	4A	.
.	.	.	4B-y	2e
.	.	.	4c	.
.	.	.	[1d	2d
.	.	4A	.	[2g
.	.	4G	.	.
=9	=9	=9	=9	=9
0r	[0D	0A	0d]	2g]
.	.	.	.	4f#i
.	.	.	.	4e
.	.	.	.	1f#i
=10	=10	=10	=10	=10
0GG	1D]	0G	1.B-y	0g
.	1E	.	.	.
.	.	.	4A	.
.	.	.	4G	.
=11	=11	=11	=11	=11
1.BB-y	1D	0d	1F	0r
.	[1G	.	1B-y	.
4AA	.	.	.	.
4GG	.	.	.	.
=12	=12	=12	=12	=12
0AA	2G]	0r	1c	0cc
.	4F#i	.	.	.
.	4E	.	.	.
.	1F#i	.	1A	.
=13	=13	=13	=13	=13
0GG	0G	0r	1.d	1.b-y
.	.	.	4c	4a
.	.	.	4B-y	4g
=14	=14	=14	=14	=14
0D	1r	1r	2A	2f
.	.	.	2.B-y	1g
.	1D	1d	.	.
.	.	.	8AL	.
.	.	.	8GJ	.
.	.	.	2A	2f#i
=15	=15	=15	=15	=15
0r	2.G	2.B-y	2G	2g
.	.	.	2.B-y	2.dd
.	4A	4c	.	.
.	1B-y	1d	.	.
.	.	.	4c	4cc
.	.	.	4d	[2b-y
.	.	.	4e	.
=16	=16	=16	=16	=16
0r	1F	1c	2.f	4b-]
.	.	.	.	8aL
.	.	.	.	8gJ
.	.	.	.	2a
.	.	.	4e	.
.	[1G	1B-y	4d	[1b-y
.	.	.	4c	.
.	.	.	[2B-y	.
=17	=17	=17	=17	=17
1r	2G]	0r	2B-]	1b-]
.	4F	.	4A	.
.	4E	.	4G	.
1D	[1F	.	1A	1r
=18	=18	=18	=18	=18
2.BB-y	1F]	0r	1B-y	1.f
4C	.	.	.	.
1D	1D	.	2A	.
.	.	.	2B-y	2f
=19	=19	=19	=19	=19
1C	1E	1G	1c	1e
1BB-y	2F	1B-y	1d	4d
.	.	.	.	4e
.	4D	.	.	4f
.	4E	.	.	4g
=20	=20	=20	=20	=20
0r	4F	1A	1c	4a
.	4G	.	.	4b-y
.	4A	.	.	4cc
.	4F	.	.	4a
.	2G	1G	2B-y	1b-y
.	2E	.	2G	.
=21	=21	=21	=21	=21
0r	2F	1d	2A	2a
.	2G	.	2B-y	1g
.	[1D	1r	1A	.
.	.	.	.	2f#i
=22	=22	=22	=22	=22
1GG	1D]	1r	2G	1g
.	.	.	2.B-y	.
1BB-y	1r	1d	.	2f
.	.	.	4A	.
.	.	.	[2G	2g
=23	=23	=23	=23	=23
1AA	1r	1c	2G]	1a
.	.	.	2F#i	.
1GG	1D	2B-y	1G	1b-y
.	.	[2d	.	.
=24	=24	=24	=24	=24
1D	1F	4d]	1r	2a
.	.	4c	.	.
.	.	2B-y	.	2.dd
1r	2G	2B-y	2r	.
.	.	.	.	4b-y
.	2F	2A	2c	2cc
=25	=25	=25	=25	=25
1r	2D	1B-y	2.d	2f
.	2E	.	.	2g
.	.	.	8cL	.
.	.	.	8B-yJ	.
1D	1F	1r	2A	2f
.	.	.	[2B-y	2d
=26	=26	=26	=26	=26
1C	2G	1r	2B-]	1e
.	2E	.	2A	.
2BB-y	1F	1B-y	2B-y	[1d
[2D	.	.	[2f	.
=27	=27	=27	=27	=27
4D]	2r	1d	2f]	1d]
4C	.	.	.	.
2BB-y	2.F	.	2f	.
2BB-y	.	1c	1f	1r
.	4G	.	.	.
2AA	2A	.	.	.
=28	=28	=28	=28	=28
1BB-y	2F	2.B-y	2d	1r
.	2G	.	1g	.
.	.	4G	.	.
1r	1D	1A	.	1a
.	.	.	2f#i	.
=29	=29	=29	=29	=29
1r	1d	1G	1g	1b-y
1BB-y	2d	1r	[1d	2b-y
.	4c	.	.	4a
.	4B-y	.	.	4g
=30	=30	=30	=30	=30
1D	2A	0r	1d]	2f
.	2F	.	.	2d
1C	2G	.	1r	2e
.	2E	.	.	[2a
=31	=31	=31	=31	=31
2.BB-y	2F	1d	1r	4a]
.	.	.	.	4g
.	2G	.	.	1g
4GG	.	.	.	.
1AA	1C	1c	2r	.
.	.	.	2A	2f#i
=32	=32	=32	=32	=32
1GG	2r	1B-y	2.d	1g
.	1D	.	.	.
.	.	.	4e	.
1r	.	2A	2f	1r
.	2BB-y	2B-y	[2f	.
=33	=33	=33	=33	=33
0r	1C	1G	2f]	1g
.	.	.	2e	.
.	[1F	1F	1f	[1a
=34	=34	=34	=34	=34
1D	1F]	2r	1d	2a]
.	.	2d	.	2f
1C	2E	1e	2.G	2.g
.	2C	.	.	.
.	.	.	4E	4a
=35	=35	=35	=35	=35
1BB-y	1D	2d	2.F	4b-y
.	.	.	.	4cc
.	.	2B-y	.	2dd
.	.	.	4G	.
2AA	2E	2c	2A	2cc
2BB-y	2D	[2d	2F	[2b-y
=36	=36	=36	=36	=36
1GG	1G	2d]	1B-y	2b-]
.	.	2B-y	.	4a
.	.	.	.	4g
1FF	1C	1c	1A	4a
.	.	.	.	4g
.	.	.	.	4f
.	.	.	.	4e
=37	=37	=37	=37	=37
2r	1D	1A	2r	1f
2D	.	.	2d	.
1E-i	2r	1G	2B-y	1r
.	2G	.	2c	.
=38	=38	=38	=38	=38
2D	2A	0r	1d	0r
2BB-y	2B-y	.	.	.
2C	2A	.	2c	.
[2D	[2F	.	2A	.
=39	=39	=39	=39	=39
2D]	2F]	0r	1d	0r
2BB-y	2.B-y	.	.	.
1C	.	.	[1c	.
.	4A	.	.	.
.	[2G	.	.	.
=40	=40	=40	=40	=40
1AA	4G]	1r	2c]	1cc
.	8F#iL	.	.	.
.	8EJ	.	.	.
.	2F#i	.	2A	.
1GG	1G	1d	1B-y	1b-y
=41	=41	=41	=41	=41
0r	1r	1e	1c	1g
.	1D	2d	2F	1a
.	.	[2d	2f	.
=42	=42	=42	=42	=42
0r	2G	2d]	2g	2b-y
.	2A	2c	2e	2cc
.	2F	2d	2f	2a
.	2G	2B-y	2d	2b-y
=43	=43	=43	=43	=43
1r	1C	1c	1e	2a
.	.	.	.	2.g
1D	2D	1A	1d	.
.	.	.	.	8f#iL
.	.	.	.	8eJ
.	2d	.	.	2f#i
=44	=44	=44	=44	=44
1E	2B-y	1G	1r	1g
.	2c	.	.	.
2D	1d	2r	[1f	1r
[2D	.	2A	.	.
=45	=45	=45	=45	=45
2D]	2D	2B-y	2f]	0r
2C	2E	2c	2e	.
2D	2F	2A	1d	.
2BB-y	2D	2B-y	.	.
=46	=46	=46	=46	=46
1C	1E	2A	1.c	1.cc
.	.	2.G	.	.
1AA	1C	.	.	.
.	.	8F#iL	.	.
.	.	8EJ	.	.
.	.	2F#i	2A	2cc
=47	=47	=47	=47	=47
[0GGl	[0Dl	[0Gl	2.B-y	[0b-yl
.	.	.	4c	.
.	.	.	[1dl	.
=48	=48	=48	=48	=48
00GG]	00D]	00G]	00d]	00b-]
=49||	=49||	=49||	=49||	=49||
*M2/1	*	*	*M2/1	*M2/1
*met(C|)	*	*	*met(C|)	*met(C|)
!!section: Pleni sunt
!!!OMD: Pleni sunt
0r	0r	0r	0r	1g
.	.	.	.	4g
.	.	.	.	4a
.	.	.	.	4b-y
.	.	.	.	4cc
=50	=50	=50	=50	=50
0r	0r	0r	1r	2a
.	.	.	.	2g
.	.	.	1d	2.dd
.	.	.	.	8ccL
.	.	.	.	8b-yJ
=51	=51	=51	=51	=51
1r	0r	0r	4d	4a
.	.	.	4e	4g
.	.	.	4f	4a
.	.	.	4g	4b-y
2r	.	.	2e	2g
2D	.	.	2d	[2f
=52	=52	=52	=52	=52
4D	0r	0r	1a	2f]
4E	.	.	.	.
4F	.	.	.	2f
4G	.	.	.	.
2E	.	.	2g	2g
2D	.	.	[2f	[2a
=53	=53	=53	=53	=53
1A	0r	0r	4f]	4a]
.	.	.	4e	4g
.	.	.	1d	2f
2r	.	.	.	1e
2AA	.	.	2c#i	.
=54	=54	=54	=54	=54
2BB-y	0r	0r	2d	2d
2.GG	.	.	2.B-y	2.g
4AA	.	.	4c	4f
4BB-y	.	.	2d	4d
4C	.	.	.	4e
=55	=55	=55	=55	=55
2AA	0r	0r	2c	2f
2GG	.	.	2B-y	1g
1D	.	.	1A	.
.	.	.	.	2f#i
=56	=56	=56	=56	=56
1GG	0r	0r	2r	0g
.	.	.	2.G	.
1r	.	.	.	.
.	.	.	4A	.
.	.	.	4B-y	.
.	.	.	4c	.
=57	=57	=57	=57	=57
0r	0r	0r	2A	2r
.	.	.	1G	2.g
.	.	.	.	4a
.	.	.	4d	4b-y
.	.	.	4e	4cc
=58	=58	=58	=58	=58
2r	0r	0r	4f	2a
.	.	.	4g	.
2.GG	.	.	2e	2g
.	.	.	2.d	1dd
4AA	.	.	.	.
4BB-y	.	.	.	.
4C	.	.	4e	.
=59	=59	=59	=59	=59
2AA	0r	0r	2f	2cc
1GG	.	.	2g	1b-y
.	.	.	2.G	.
[2D	.	.	.	4a
.	.	.	4A	4g
=60	=60	=60	=60	=60
4D]	0r	0r	4B-y	1f
4E	.	.	4c	.
4F	.	.	2A	.
4G	.	.	.	.
2E	.	.	2G	1r
[2D	.	.	2r	.
=61	=61	=61	=61	=61
2D]	0r	0r	2.d	0r
1GG	.	.	.	.
.	.	.	4c	.
.	.	.	2B-y	.
2AA	.	.	[2A	.
=62	=62	=62	=62	=62
2BB-y	0r	0r	2A]	1r
2C	.	.	1G	.
1AA	.	.	.	2r
.	.	.	2F#i	2a
=63	=63	=63	=63	=63
1GG	0r	0r	2.G	2b-y
.	.	.	.	2.g
.	.	.	4A	.
1r	.	.	4B-y	.
.	.	.	4c	4a
.	.	.	4d	4b-y
.	.	.	4e	4cc
=64	=64	=64	=64	=64
0r	0r	0r	4f	2a
.	.	.	4d	.
.	.	.	2e	2g
.	.	.	2.f	2.dd
.	.	.	4e	4cc
=65	=65	=65	=65	=65
0r	0r	0r	2d	4b-y
.	.	.	.	4a
.	.	.	2c	2.a
.	.	.	2B-y	.
.	.	.	.	4g
.	.	.	2c	[2g
=66	=66	=66	=66	=66
2r	0r	0r	1A	2g]
2D	.	.	.	2f#i
2E	.	.	1G	1g
[2C	.	.	.	.
=67	=67	=67	=67	=67
4C]	0r	0r	4G	1r
4D	.	.	4F	.
4E	.	.	4G	.
4F	.	.	4A	.
2D	.	.	2B-y	2d
2C	.	.	[2c	2e
=68	=68	=68	=68	=68
4AA	0r	0r	2c]	4c
4BB-y	.	.	.	4d
4C	.	.	2A	4e
4D	.	.	.	4f
2BB-y	.	.	2B-y	2d
2AA	.	.	2c	2c
=69	=69	=69	=69	=69
2GG	0r	0r	2B-y	2g
2.D	.	.	2A	2a
.	.	.	2.d	4f
4E	.	.	.	4g
4F	.	.	.	4a
4G	.	.	8cL	4b-y
.	.	.	8B-yJ	.
=70	=70	=70	=70	=70
4A	0r	0r	2A	2cc
4F	.	.	.	.
2G	.	.	2B-y	1b-y
1F	.	.	1c	.
.	.	.	.	2a
=71	=71	=71	=71	=71
1.G	0r	0r	1B-y	1b-y
.	.	.	[1d	1r
2G	.	.	.	.
=72	=72	=72	=72	=72
1G	0r	0r	2d]	1.b-y
.	.	.	2d	.
[1G	.	.	1d	.
.	.	.	.	2b-y
=73	=73	=73	=73	=73
1G]	0r	0r	1B-y	1b-y
1F	.	.	2c	1a
.	.	.	2d	.
=74	=74	=74	=74	=74
2E	0r	0r	2e	2g
2D	.	.	1f	1a
2.F	.	.	.	.
.	.	.	4e	4g
4G	.	.	4d	4f
=75	=75	=75	=75	=75
2A	0r	0r	2c	2e
2B-y	.	.	1d	2d
2A	.	.	.	1e
2AA	.	.	2c#i	.
=76	=76	=76	=76	=76
2.BB-y	0r	0r	1d	0d
4C	.	.	.	.
2D	.	.	1f	.
2BB-y	.	.	.	.
=77	=77	=77	=77	=77
2C	0r	0r	2e	1r
2D	.	.	1d	.
1E	.	.	.	2r
.	.	.	2c#i	2g
=78	=78	=78	=78	=78
2D	0r	0r	2d	2f
2G	.	.	2B-y	4d
.	.	.	.	4e
2.F	.	.	2.c	4f
.	.	.	.	4g
.	.	.	.	[2a
4D	.	.	4d	.
=79	=79	=79	=79	=79
2E	0r	0r	2B-y	4a]
.	.	.	.	4g
2C	.	.	2c	2.g
1c	.	.	1A	.
.	.	.	.	8f#iL
.	.	.	.	8eJ
.	.	.	.	2f#i
=80	=80	=80	=80	=80
2.B-y	0r	0r	[0Gl	2g
.	.	.	.	2.b-y
4A	.	.	.	.
4G	.	.	.	.
4F	.	.	.	4a
4E	.	.	.	4g
4D	.	.	.	4f
=81	=81	=81	=81	=81
2C	0r	0r	0G_	2e
2BB-y	.	.	.	2d
1C	.	.	.	1e
=82	=82	=82	=82	=82
00GG	00r	00r	00G]	00d
=83||	=83||	=83||	=83||	=83||
!	!	!LO:TX:a:t=Canon&colon; tenor I/bassus at the octave	!	!
*M3/1	*M3/1	*M3/1	*M3/1	*M3/1
*met(O3)	*met(O3)	*met(O3)	*met(O3)	*met(O3)
!!section: Osanna
!!!OMD: Osanna
0.r	1G	0.r	0.r	0.r
.	1B-y	.	.	.
.	1A	.	.	.
=84	=84	=84	=84	=84
0.r	1G	0.r	1G	0.r
.	1d	.	1B-y	.
.	1c	.	1A	.
=85	=85	=85	=85	=85
0.r	1.B-y	0.r	1G	0.r
.	.	.	1d	.
.	2G	.	.	.
.	1A	.	1c	.
=86	=86	=86	=86	=86
0.r	0G	0.r	2B-y	1g
.	.	.	2c	.
.	.	.	2d	1b-y
.	.	.	2B-y	.
.	1F	.	1c	1a
=87	=87	=87	=87	=87
0.r	0G	0.r	1.B-y	1g
.	.	.	.	1dd
.	.	.	2G	.
.	1r	.	1A	1cc
=88	=88	=88	=88	=88
0.r	1.B-y	0.r	1G	2b-y
.	.	.	.	2cc
.	.	.	1g	2dd
.	2G	.	.	2b-y
.	1A	.	1f	1cc
=89	=89	=89	=89	=89
0.r	0G	1G	1.g	1.b-y
.	.	1B-y	.	.
.	.	.	2e	2g
.	1D	1A	1f	1a
=90	=90	=90	=90	=90
0.r	1G	1G	0g	0.d
.	1B-y	1d	.	.
.	1A	1c	1r	.
=91	=91	=91	=91	=91
1GG	0G	2B-y	1.B-y	0.r
.	.	2c	.	.
1BB-y	.	2d	.	.
.	.	2B-y	2G	.
1AA	1F	1c	1A	.
=92	=92	=92	=92	=92
1GG	1G	1.B-y	2B-y	0.r
.	.	.	1d	.
1D	1D	.	.	.
.	.	4A	2B-y	.
.	.	4G	.	.
1C	1E	1A	1c	.
=93	=93	=93	=93	=93
2BB-y	1.F	1B-y	1d	0f
2C	.	.	.	.
2D	.	0r	2A	.
2BB-y	2D	.	2B-y	.
1C	1E	.	2G	1e
.	.	.	2A	.
=94	=94	=94	=94	=94
1.BB-y	1.F	0.r	0B-y	1.d
4AA	2G	.	.	4c
4GG	.	.	.	4B-y
1AA	1E	.	1A	1c
=95	=95	=95	=95	=95
1BB-y	1.D	0.r	0F	2d
.	.	.	.	2e
0r	.	.	.	2f
.	2E	.	.	2g
.	1F	.	1D	1a
=96	=96	=96	=96	=96
0.r	1G	1G	1.d	0g
.	0D	1B-y	.	.
.	.	.	2c	.
.	.	1A	1d	1f#i
=97	=97	=97	=97	=97
0.r	0.r	1G	1.B-y	0.g
.	.	1d	.	.
.	.	.	2c	.
.	.	[1B-y	1d	.
=98	=98	=98	=98	=98
1GG	1.D	2B-]	0G	0.r
.	.	2c	.	.
1BB-y	.	2d	.	.
.	2E	2B-y	.	.
1AA	1C	1c	1F	.
=99	=99	=99	=99	=99
1GG	1D	1B-y	1G	0.r
1D	0F	0r	1A	.
[1BB-y	.	.	2B-y	.
.	.	.	2c	.
=100	=100	=100	=100	=100
2BB-]	0B-y	0.r	2d	0r
2C	.	.	2e	.
2D	.	.	2f	.
2BB-y	.	.	2d	.
1C	1A	.	1e	1cc
=101	=101	=101	=101	=101
1BB-y	1B-y	1B-y	1d	1dd
0r	1G	1d	1g	1b-y
.	2A	1c	2e	1a
.	2F	.	2f	.
=102	=102	=102	=102	=102
0.r	2G	2B-y	2e	2g
.	2E	2G	2c	1g
.	1D	1A	1d	.
.	.	.	.	2f#i
.	1E	1G	1B-y	1g
=103	=103	=103	=103	=103
1BB-y	1F	0.r	2B-y	1.f
.	.	.	1d	.
1D	2F	.	.	.
.	1B-y	.	2B-y	2d
1C	.	.	1c	1e
.	2A	.	.	.
=104	=104	=104	=104	=104
2BB-y	1B-y	1d	0.r	2d
2GG	.	.	.	2g
1AA	1A	2c	.	2e
.	.	2A	.	2f
1GG	1D	1B-y	.	1g
=105	=105	=105	=105	=105
0.r	1F	1A	0.c	1.f
.	0C	0G	.	.
.	.	.	.	4e
.	.	.	.	4d
.	.	.	.	1e
=106	=106	=106	=106	=106
1D	1F	1F	1A	1f
2C	2G	0r	1c	0r
2AA	2A	.	.	.
1BB-y	2F	.	1d	.
.	2G	.	.	.
=107	=107	=107	=107	=107
1AA	1A	1r	1c	0.r
0GG	1.B-y	0d	1d	.
.	.	.	1B-y	.
.	2G	.	.	.
=108	=108	=108	=108	=108
1FF	1.A	0f	0.c	0a
0r	.	.	.	.
.	2F	.	.	.
.	2A	[1e	.	[1cc
.	2B-y	.	.	.
=109	=109	=109	=109	=109
1r	1c	1e]	1A	1cc]
0D	1.F	1d	1B-y	1.dd
.	.	[1f	[1A	.
.	2G	.	.	4cc
.	.	.	.	4b-y
=110	=110	=110	=110	=110
0F	1A	2f]	1A]	0a
.	.	2e	.	.
.	1D	0d	1F	.
[1E	1r	.	[1G	[1g
=111	=111	=111	=111	=111
1E]	0.r	1c	1G]	1g]
1D	.	0d	1A	1f
[1F	.	.	1D	[1a
=112	=112	=112	=112	=112
2F]	0.r	1r	1r	2a]
2E	.	.	.	2g
0D	.	1d	0d	2f
.	.	.	.	2e
.	.	1B-y	.	1d
=113	=113	=113	=113	=113
1C	0r	1c	1e	0g
0D	.	0A	[0d	.
.	1A	.	.	1f#i
=114	=114	=114	=114	=114
1r	1B-y	1G	0.d]	1g
1D	1A	0r	.	0r
1BB-y	1B-y	.	.	.
=115	=115	=115	=115	=115
1C	1.G	0.r	0c	1r
0AA	.	.	.	0cc
.	4F#i	.	.	.
.	4E	.	.	.
.	1F#i	.	1A	.
=116	=116	=116	=116	=116
1GG	1G	0d	1B-y	1b-y
0r	1F	.	0d	1.a
.	1D	1f	.	.
.	.	.	.	2f
=117	=117	=117	=117	=117
0.r	1E	1e	1c	1g
.	2F	1d	1d	1f
.	2G	.	.	.
.	1A	1c	1A	1e
=118	=118	=118	=118	=118
0D	0.F	1d	1.f	2d
.	.	.	.	2e
.	.	1B-y	.	2f
.	.	.	4e	2g
.	.	.	4d	.
1F	.	1r	2c	2a
.	.	.	2d	2f
=119	=119	=119	=119	=119
1E	0.r	1c	1e	1g
1D	.	2d	1A	1f
.	.	2B-y	.	.
1C	.	1c	1r	1e
=120	=120	=120	=120	=120
1D	0.F	1A	1A	0f
1BB-y	.	0d	1B-y	.
1r	.	.	1A	1d
=121	=121	=121	=121	=121
1C	1E	1G	1c	1e
2D	1F	1F	2A	1d
2BB-y	.	.	2B-y	.
1C	1C	[1E	1G	1e
=122	=122	=122	=122	=122
1AA	1c	1E]	1A	2e
.	.	.	.	1a
0D	0d	0D	1B-y	.
.	.	.	.	1g
.	.	.	1A	.
.	.	.	.	2f#i
=123	=123	=123	=123	=123
[0.GGl	1.B-y	[0.Gl	1.G	[0.gl
.	2A	.	2A	.
.	1G	.	2B-y	.
.	.	.	2c	.
=124	=124	=124	=124	=124
0.GG_	1D	0.G_	1d	0.g_
.	0E-X	.	1.B-y	.
.	.	.	2c	.
=125	=125	=125	=125	=125
00GG]	00Dl	00G]	00d	00g]
=126||	=126||	=126||	=126||	=126||
*	*	*M2/1	*M2/1	*M2/1
*	*	*met(C|)	*met(C|)	*met(C|)
!!section: Benedictus
!!!OMD: Benedictus
0r	0r	1c	1r	0g
.	.	2c	1g	.
.	.	2c	.	.
=127	=127	=127	=127	=127
0r	0r	2G	2g	0b-y
.	.	1B-y	2g	.
.	.	.	2d	.
.	.	4A	[2f	.
.	.	4G	.	.
=128	=128	=128	=128	=128
0r	0r	0F	2f]	0a
.	.	.	4e	.
.	.	.	4d	.
.	.	.	[1c	.
=129	=129	=129	=129	=129
0r	0r	2r	1c]	[0g
.	.	2c	.	.
.	.	2c	1r	.
.	.	2c	.	.
=130	=130	=130	=130	=130
0r	0r	2G	1r	0g]
.	.	1c	.	.
.	.	.	2r	.
.	.	4B-y	2g	.
.	.	4A	.	.
=131	=131	=131	=131	=131
0r	0r	0G	2g	0dd
.	.	.	2g	.
.	.	.	2d	.
.	.	.	[2g	.
=132	=132	=132	=132	=132
0r	0r	2.G	2g]	2r
.	.	.	4f	2dd
.	.	4A	4e	.
.	.	2.B-y	2.d	2dd
.	.	.	.	2dd
.	.	4A	4e	.
=133	=133	=133	=133	=133
0r	0r	2F	2f	2a
.	.	2G	2.d	1dd
.	.	[1D	.	.
.	.	.	4e	.
.	.	.	[2f	4cc
.	.	.	.	4b-y
=134	=134	=134	=134	=134
0r	0r	2D]	2f]	2a
.	.	2E	2.g	2g
.	.	1C	.	2.cc
.	.	.	4f	.
.	.	.	4e	.
.	.	.	4d	4b-y
=135	=135	=135	=135	=135
0r	0r	2F	2c	2a
.	.	2G	2B-y	1g
.	.	1D	1A	.
.	.	.	.	2f#i
=136	=136	=136	=136	=136
0r	0r	2r	0G	1g
.	.	2.d	.	.
.	.	.	.	2r
.	.	4c	.	.
.	.	[2B-y	.	[2g
=137	=137	=137	=137	=137
0r	0r	4B-]	2r	4g]
.	.	4A	.	4a
.	.	2G	2d	2b-y
.	.	2F	2f	2a
.	.	[2G	2e	2g
=138	=138	=138	=138	=138
0r	0r	4G]	2d	1dd
.	.	4F	.	.
.	.	4D	2.f	.
.	.	4E	.	.
.	.	2F	.	2cc
.	.	.	4e	.
.	.	[2G	4d	[2b-y
.	.	.	4c	.
=139	=139	=139	=139	=139
0r	0r	4G]	1B-y	4b-]
.	.	4F	.	4a
.	.	4E	.	4g
.	.	4D	.	4f
.	.	1C	1c	1e
=140	=140	=140	=140	=140
0r	0r	1G	1B-y	[0d
.	.	2F	2A	.
.	.	[2G	[2B-y	.
=141	=141	=141	=141	=141
0r	0r	2G]	2B-]	0d]
.	.	4F	4A	.
.	.	4E	4G	.
.	.	1D	1A	.
=142	=142	=142	=142	=142
0r	0r	1G	4G	1b-y
.	.	.	4A	.
.	.	.	4B-y	.
.	.	.	4c	.
.	.	2D	2d	2a
.	.	[2G	[2G	[2b-y
=143	=143	=143	=143	=143
0r	0r	2G]	2G]	2b-]
.	.	4F	1g	4a
.	.	4E	.	4g
.	.	1D	.	1a
.	.	.	2f#i	.
=144	=144	=144	=144	=144
0r	0r	1G	1g	1g
.	.	[1B-y	1d	1r
=145	=145	=145	=145	=145
0r	0r	2B-]	1.f	0r
.	.	2B-y	.	.
.	.	2B-y	.	.
.	.	4A	2f	.
.	.	4G	.	.
=146	=146	=146	=146	=146
0r	0r	0F	2f	1a
.	.	.	4e	.
.	.	.	4d	.
.	.	.	[1c	[1cc
=147	=147	=147	=147	=147
0r	0r	2r	1c]	2cc]
.	.	1c	.	2cc
.	.	.	2r	2cc
.	.	2c	[2g	4b-y
.	.	.	.	4a
=148	=148	=148	=148	=148
0r	0r	2c	2g]	1g
.	.	4B-y	2g	.
.	.	4A	.	.
.	.	[1G	2.g	2r
.	.	.	.	[2dd
.	.	.	8fL	.
.	.	.	8eJ	.
=149	=149	=149	=149	=149
0r	0r	2G]	2.d	2dd]
.	.	4F	.	2dd
.	.	4E	4e	.
.	.	2.D	2.f	2dd
.	.	.	.	4cc
.	.	4E	8eL	4b-y
.	.	.	8dJ	.
=150	=150	=150	=150	=150
0r	0r	2F	2c	4a
.	.	.	.	4g
.	.	4D	1d	4f
.	.	4E	.	4g
.	.	4F	.	4a
.	.	4G	.	4b-y
.	.	4A	4c	4cc
.	.	4B-y	4B-y	4dd
=151	=151	=151	=151	=151
0r	0r	4c	4A	2cc
.	.	4d	4F	.
.	.	4e	1G	2.b-y
.	.	4d	.	.
.	.	4c	.	.
.	.	4B-y	.	8aL
.	.	.	.	8gJ
.	.	2c	2F	2a
=152	=152	=152	=152	=152
0r	0r	2B-y	4G	1b-y
.	.	.	4A	.
.	.	4G	4B-y	.
.	.	4A	4c	.
.	.	4B-y	4d	1r
.	.	4c	4e	.
.	.	2d	4f	.
.	.	.	4g	.
=153	=153	=153	=153	=153
0r	0r	2c	2a	1r
.	.	2B-y	1g	.
.	.	1A	.	2r
.	.	.	2f#i	2a
=154	=154	=154	=154	=154
0r	0r	4G	1g	2b-y
.	.	4A	.	.
.	.	4B-y	.	4g
.	.	4c	.	4a
.	.	1d	4G	4b-y
.	.	.	4A	4cc
.	.	.	4B-y	[2dd
.	.	.	4c	.
=155	=155	=155	=155	=155
0r	0r	4D	2.d	2dd]
.	.	4E	.	.
.	.	4F	.	4d
.	.	4G	4c	4e
.	.	2A	4A	4f
.	.	.	4B-y	4g
.	.	2F	4c	4a
.	.	.	4d	4b-y
=156	=156	=156	=156	=156
0r	0r	1C	4e	4cc
.	.	.	4d	4b-y
.	.	.	4c	4a
.	.	.	4B-y	4g
.	.	1D	4A	4f#i
.	.	.	4G	4e
.	.	.	2A	2f#i
=157	=157	=157	=157	=157
00r	00r	00Gl	00Gl	00gl
==	==	==	==	==
*-	*-	*-	*-	*-
!!!system-decoration: [*]
!!!RDF**kern: i = editorial accidental
!!!RDF**kern: l = terminal long
!!!ENC: Benjamin Ory
!!!END: 2024/9/9
!!!EED: Benjamin Ory
!!!EEV: 2024/09/09
!!!YEC: Copyright 2024 Benjamin Ory, All Rights Reserved
!!!ONB: Translated from MusicXML on 2024/09/09